public/avatar/shoe/20.svg

<svg xmlns:xlink="http://www.w3.org/1999/xlink" height="38.3" width="36.05" xmlns="http://www.w3.org/2000/svg"><use height="20.35" transform="translate(8.65 7.6)" width="27.4" xlink:href="#a"/><defs><use height="20.35" width="27.4" xlink:href="#b" id="a"/><g id="b"><path d="M9.15 5.9q-.2 1.3-2.55 2.05l-.8-.2 2.05-.45 1.3-1.4m-22.3 2.25-.3-1.5q-.15-1.65.2-2.15l3.2-2.35.2-.15L-8.5.7l.5-.6q-1.5 2-5.05 4.4-.35.5-.35 2.15l.25 1.5M-3.4-9.4q1.4.25 2 1.85l2.95-1.5 2.6.95-2.5-.6-3.05 1.15-2-1.85" fill="#cc8d69" fill-rule="evenodd" transform="translate(13.9 10.2)"/><path d="m4.15-8.1.2.1.95.4.1.05q.45.35 1.4 3.75l.25.95.7-2.1q.25-.9 1.15-.9.95 0 1.25.85l1 2.7h1.05q.75 0 1.25.75l.05.5q0 .6-.3.85L12.1 1l1 1.7.2.65-.3.8q-.55.7-1.4.4l-1.45-.5L9 5.25l.1.35.05.3-1.3 1.4-2.05.45-.45-.5-.15-.3-.65-1.15L4 7.75l-.8.8-5.45 1.1-5.8-.3-4.75-.8-.2-.15-.15-.25-.25-1.5q0-1.65.35-2.15Q-9.5 2.1-8 .1l.4-.6.05-.1.05-.05Q-6.2-3-5.45-9.15l2.05-.25 2 1.85L1.65-8.7l2.5.6m1.5 5.6Q4.4-3.9 2.5-3.85q-1.1.05-2 .95-1.1 1.1-1.55 1.25-1.4.4-4.4-1.95 3 2.35 4.4 1.95Q-.6-1.8.5-2.9q.9-.9 2-.95Q4.4-3.9 5.65-2.5m1.4-.35.25 1 .3 1.1-.3-1.1-.25-1m1.7 6.55L9.8 2.5l2.25.85L10.55.9l1.65-1.95h-1.95l-1.3-3.5-1.2 3.7-.15.1.5 2.2h.05L9 5.25 8.75 3.7m-16.7 1.4-3.7-.45 3.7.45" fill-rule="evenodd" transform="translate(13.9 10.2)"/><path d="m7.6-.75.15-.1 1.2-3.7 1.3 3.5h1.95L10.55.9l1.5 2.45L9.8 2.5 8.75 3.7 8.3 1.4l-.15.05-.55-2.2" fill="#c5cdd6" fill-rule="evenodd" transform="translate(13.9 10.2)"/><path d="M8.15 1.45H8.1l-.5-2.2.55 2.2" fill="#7de8ff" fill-rule="evenodd" transform="translate(13.9 10.2)"/><path d="M8.75 3.7 9 5.25l-.85-3.8.15-.05.45 2.3" fill="#875d37" fill-rule="evenodd" transform="translate(13.9 10.2)"/><path d="m4.15-8.1.2.1.95.4.1.05q.45.35 1.4 3.75l.25.95.25 1 .3 1.1.55 2.2.85 3.8m.1.35.05.3q-.2 1.3-2.55 2.05l-.8-.2-.45-.5-.15-.3-.65-1.15L4 7.75l-.8.8-5.45 1.1-5.8-.3-4.75-.8-.2-.15-.15-.25-.25-1.5q0-1.65.35-2.15Q-9.5 2.1-8 .1l.4-.6.05-.1.05-.05q.6-1.2.95-4.35.4-3.25 1.1-4.15.8-.95 2.05-.25l2 1.85L1.65-8.7l2.5.6" fill="none" stroke="#000909" stroke-linecap="round" stroke-linejoin="round" transform="translate(13.9 10.2)"/><path d="M-5.45-3.6q3 2.35 4.4 1.95Q-.6-1.8.5-2.9q.9-.9 2-.95Q4.4-3.9 5.65-2.5m-17.3 7.15 3.7.45" fill="none" stroke="#cfcfcf" stroke-linecap="round" stroke-linejoin="round" transform="translate(13.9 10.2)"/></g></defs></svg>

<?xml version="1.0" encoding="UTF-8" standalone="no"?>
<svg xmlns:xlink="http://www.w3.org/1999/xlink" height="38.3px" width="36.05px" xmlns="http://www.w3.org/2000/svg">
  <g transform="matrix(1.0, 0.0, 0.0, 1.0, 23.8, 14.85)">
    <use height="20.35" transform="matrix(1.0, 0.0, 0.0, 1.0, -15.15, -7.25)" width="27.4" xlink:href="#sprite0"/>
  </g>
  <defs>
    <g id="sprite0" transform="matrix(1.0, 0.0, 0.0, 1.0, 13.9, 10.2)">
      <use height="20.35" transform="matrix(1.0, 0.0, 0.0, 1.0, -13.9, -10.2)" width="27.4" xlink:href="#shape0"/>
    </g>
    <g id="shape0" transform="matrix(1.0, 0.0, 0.0, 1.0, 13.9, 10.2)">
      <path d="M9.15 5.9 Q8.95 7.2 6.6 7.95 L5.8 7.75 7.85 7.3 9.15 5.9 M-13.15 8.15 L-13.45 6.65 Q-13.6 5.0 -13.25 4.5 L-10.05 2.15 -9.85 2.0 -8.5 0.7 -8.0 0.1 Q-9.5 2.1 -13.05 4.5 -13.4 5.0 -13.4 6.65 L-13.15 8.15 M-3.4 -9.4 Q-2.0 -9.15 -1.4 -7.55 L1.55 -9.05 4.15 -8.1 1.65 -8.7 -1.4 -7.55 -3.4 -9.4" fill="#cc8d69" fill-rule="evenodd" stroke="none"/>
      <path d="M4.15 -8.1 L4.35 -8.0 5.3 -7.6 5.4 -7.55 Q5.85 -7.2 6.8 -3.8 L7.05 -2.85 7.75 -4.95 Q8.0 -5.85 8.9 -5.85 9.85 -5.85 10.15 -5.0 L11.15 -2.3 12.2 -2.3 Q12.95 -2.3 13.45 -1.55 L13.5 -1.05 Q13.5 -0.45 13.2 -0.2 L12.1 1.0 13.1 2.7 13.3 3.35 13.0 4.15 Q12.45 4.85 11.6 4.55 L10.15 4.05 9.0 5.25 9.1 5.6 9.15 5.9 7.85 7.3 5.8 7.75 5.35 7.25 5.2 6.95 4.55 5.8 4.0 7.75 3.2 8.55 -2.25 9.65 -8.05 9.35 -12.8 8.55 -13.0 8.4 -13.15 8.15 -13.4 6.65 Q-13.4 5.0 -13.05 4.5 -9.5 2.1 -8.0 0.1 L-7.6 -0.5 -7.55 -0.6 -7.5 -0.65 Q-6.2 -3.0 -5.45 -9.15 L-3.4 -9.4 -1.4 -7.55 1.65 -8.7 4.15 -8.1 M5.65 -2.5 Q4.4 -3.9 2.5 -3.85 1.4 -3.8 0.5 -2.9 -0.6 -1.8 -1.05 -1.65 -2.45 -1.25 -5.45 -3.6 -2.45 -1.25 -1.05 -1.65 -0.6 -1.8 0.5 -2.9 1.4 -3.8 2.5 -3.85 4.4 -3.9 5.65 -2.5 M7.05 -2.85 L7.3 -1.85 7.6 -0.75 7.3 -1.85 7.05 -2.85 M8.75 3.7 L9.8 2.5 12.05 3.35 10.55 0.9 12.2 -1.05 10.25 -1.05 8.95 -4.55 7.75 -0.85 7.6 -0.75 8.1 1.45 8.15 1.45 9.0 5.25 8.75 3.7 M-7.95 5.1 L-11.65 4.65 -7.95 5.1" fill="#000000" fill-rule="evenodd" stroke="none"/>
      <path d="M7.6 -0.75 L7.75 -0.85 8.95 -4.55 10.25 -1.05 12.2 -1.05 10.55 0.9 12.05 3.35 9.8 2.5 8.75 3.7 8.3 1.4 8.15 1.45 7.6 -0.75" fill="#c5cdd6" fill-rule="evenodd" stroke="none"/>
      <path d="M8.15 1.45 L8.1 1.45 7.6 -0.75 8.15 1.45" fill="#7de8ff" fill-rule="evenodd" stroke="none"/>
      <path d="M8.75 3.7 L9.0 5.25 8.15 1.45 8.3 1.4 8.75 3.7" fill="#875d37" fill-rule="evenodd" stroke="none"/>
      <path d="M4.15 -8.1 L4.35 -8.0 5.3 -7.6 5.4 -7.55 Q5.85 -7.2 6.8 -3.8 L7.05 -2.85 7.3 -1.85 7.6 -0.75 8.15 1.45 9.0 5.25 M9.1 5.6 L9.15 5.9 Q8.95 7.2 6.6 7.95 L5.8 7.75 5.35 7.25 5.2 6.95 4.55 5.8 4.0 7.75 3.2 8.55 -2.25 9.65 -8.05 9.35 -12.8 8.55 -13.0 8.4 -13.15 8.15 -13.4 6.65 Q-13.4 5.0 -13.05 4.5 -9.5 2.1 -8.0 0.1 L-7.6 -0.5 -7.55 -0.6 -7.5 -0.65 Q-6.9 -1.85 -6.55 -5.0 -6.15 -8.25 -5.45 -9.15 -4.65 -10.1 -3.4 -9.4 L-1.4 -7.55 1.65 -8.7 4.15 -8.1" fill="none" stroke="#000909" stroke-linecap="round" stroke-linejoin="round" stroke-width="1.0"/>
      <path d="M-5.45 -3.6 Q-2.45 -1.25 -1.05 -1.65 -0.6 -1.8 0.5 -2.9 1.4 -3.8 2.5 -3.85 4.4 -3.9 5.65 -2.5 M-11.65 4.65 L-7.95 5.1" fill="none" stroke="#cfcfcf" stroke-linecap="round" stroke-linejoin="round" stroke-width="1.0"/>
    </g>
  </defs>
</svg>
